X: 1
T: The Number 62
R: slide
M: 12/8
L: 1/8
K: Dmaj
|:"D" d'af "A/#C" c'af "Bm" g2 f2 e2|"A/#C" fed e2c "D/#F" d2 c2 A2|
[1 "G" BG cG dG "D/#F" cG dG eG|"Em" dG eG fG "A7" e6:|2 "G" BG cG dG "A" cG dG eG|"D" d3d d2 d6||
|:"G"BGB " D/#F"cGc "Em"d3c de "A"dc BA|"G"BGB " D/#F"cGc "Em"d3c de "G/A" fe dc|
"G"BGB " D/#F"cGc "Em"d3c de "A7"dc BA|"G"BGB " D/#F"cGc "Em"d3c de "Em/A" fe de|
"D" fedefa "A/D"f3ede "Em/D"fede|"Em/G"fedefa f6- f4|
"Em"gfefgb "Em/D"g3fef gfef|"Em/C"gfefgb g6- g4:|

